!!!COM: Bach, Johann Sebastian
!!!OPR: Joh. Seb. Bachs vierstimmige Choralgesänge
!!!XEN: Four-part Chorales
!!!OTL: 67. Gott lebet noch
!!!SCT: BWV 320
!!!SCA: Thematisch-systematisches Verzeichnis der musikalischen Werke Johann Sebastian Bach: Bach-Werke-Verzeichnis (Schmieder)
!!!YOR: Bach Gesellschaft Edition xxxix
!!!ENC: Steven Rasmussen
!!!CDT: 1685/3//-1750/7/28/
!!!OCY: Deutschland
!!!YEC: Copyright (c) 1994, 2000 Center for Computer Assisted Research in the Humanities
!!!YEM: Rights to all derivative editions reserved
!!!YEN: United States of America
**kern	**silbe	**kern	**silbe	**kern	**silbe	**kern	**silbe
*I:[SOPRANO]	*I:[SOPRANO]	*I:[ALTO]	*I:[ALTO]	*I:[TENORE]	*I:[TENORE]	*I:[BASSO]	*I:[BASSO]
*clefG2	*	*clefG2	*	*clefGv2	*	*clefF4	*
*k[b-]	*	*k[b-]	*	*k[b-]	*	*k[b-]	*
*F:	*	*F:	*	*F:	*	*F:	*
*M3/4	*	*M3/4	*	*M3/4	*	*M3/4	*
=1-	=1-	=1-	=1-	=1-	=1-	=1-	=1-
4f/	Gott	4c/	.	4A/	.	4FF/	.
4a/	le-	4f/	.	4c\	.	4F\	.
4bn\	-bet	4f/	.	4d\	.	4D\	.
=2	=2	=2	=2	=2	=2	=2	=2
2.cc\	noch;	2.g/	.	2.e\	.	4C/	.
.	.	.	.	.	.	4c\	.
.	.	.	.	.	.	4B-\	.
=3	=3	=3	=3	=3	=3	=3	=3
4cc\	See-	4f/	.	4c\	.	4A\	.
4b-\	.	4g/	.	4d\	.	4G\	.
4cc\	-le,	4f/	.	4c\	.	4A\	.
=4	=4	=4	=4	=4	=4	=4	=4
4dd\	was	2f/	.	4B-\	.	4B-\	.
4cc\	.	.	.	4F/	.	4A\	.
4dd\	ver-	4f/	.	4B-\	.	4B-\	.
=5	=5	=5	=5	=5	=5	=5	=5
4ee\	-zagst	8g/L	.	8B-\L	.	2G\	.
.	.	8a/J	.	8c\J	.	.	.
4dd\	.	2b-\	du	4d\	.	.	.
4ee\	du	.	.	4c\	du	4C/	.
=6	=6	=6	=6	=6	=6	=6	=6
2.ff;\	doch?	2.a;/	.	2.c;\	.	2F\	.
.	.	.	.	.	.	4FF;/	.
=7	=7	=7	=7	=7	=7	=7	=7
2a/	Gott	2f/	.	2d\	.	4D/	.
.	.	.	.	.	.	4C/	.
4b-\	ist	4f/	.	4d\	.	4BB-/	.
=8	=8	=8	=8	=8	=8	=8	=8
4cc\	gut,	8f/L	.	2c\	.	4AA/	.
.	.	8d/J	.	.	.	.	.
4b-\	.	4e/	.	.	.	4GG/	.
4a/	der	4f/	.	4c\	.	4FF/	.
=9	=9	=9	=9	=9	=9	=9	=9
2g/	aus	2e/	.	2c\	.	4C/	.
.	.	.	.	.	.	4BB-/	.
4a/	Er-	4f#/	.	4c\	.	4AA/	.
=10	=10	=10	=10	=10	=10	=10	=10
4b-\	-bar-	4g/	.	4d\	.	4GG/	.
4a/	.	4f/	.	4c\	.	4AA/	.
4g/	-men	4e/	.	4c\	.	4BB-/	.
=11	=11	=11	=11	=11	=11	=11	=11
2f/	al-	8f/L	.	4c\	.	4AA/	.
.	.	8e/J	.	.	.	.	.
.	.	4d/	.	8B-/L	.	4BB-/	.
.	.	.	.	8A/J	.	.	.
4g/	-le	4e/	.	4B-\	.	4GG/	.
=12	=12	=12	=12	=12	=12	=12	=12
2a/	H\u3lf'	2f/	.	2c\	.	4FF/	.
.	.	.	.	.	.	4F\	.
4g/	auf	4g/	.	4c\	.	4E\	.
=13	=13	=13	=13	=13	=13	=13	=13
2a/	Er-	2f/	.	2c\	.	4F\	.
.	.	.	.	.	.	4E\	.
4bn\	-den	4f/	.	4d\	.	4D\	.
=14	=14	=14	=14	=14	=14	=14	=14
2.cc;\	tut,	2.g;/	.	2.e;\	.	2.C;/	.
=15	=15	=15	=15	=15	=15	=15	=15
2ee\	der	2cc\	.	2g\	.	4c\	.
.	.	.	.	.	.	4B-\	.
4ff\	mit	4cc\	.	4f\	.	4A\	.
=16	=16	=16	=16	=16	=16	=16	=16
2dd\	Kraft	4b-\	.	8f\L	.	4B-\	.
.	.	.	.	8e\	.	.	.
.	.	4f/	.	8d\	.	4BB-/	.
.	.	.	.	8c#\J	.	.	.
4ff\	und	4b-\	.	4d\	.	4A\	.
=17	=17	=17	=17	=17	=17	=17	=17
2ee\	star-	2b-\	.	2g\	.	4G\	.
.	.	.	.	.	.	4F\	.
4dd\	-ken	4b-\	.	4f\	.	4G\	.
=18	=18	=18	=18	=18	=18	=18	=18
2cc#\	Ar-	2a/	.	2e\	.	4A\	.
.	.	.	.	.	.	4AA/	.
4a/	-men	4e/	.	4c#\	.	4G\	.
=19	=19	=19	=19	=19	=19	=19	=19
2dd\	ma-	4.a/	.	2d\	.	4F\	.
.	.	.	.	.	.	4E\	.
.	.	8g/	.	.	.	.	.
4a/	-chet	8f/L	.	4c\	.	4D\	.
.	.	8e/J	.	.	.	.	.
=20	=20	=20	=20	=20	=20	=20	=20
4b-\	Al-	4.d/	.	4B-\	.	4G\	.
4a/	.	.	.	8f\L	.	4A\	.
.	.	8c#/	.	8e\J	.	.	.
4g/	-les	4d/	.	8d\L	.	4B-\	.
.	.	.	.	8e\J	.	.	.
=21	=21	=21	=21	=21	=21	=21	=21
2f/	wohl	2d/	.	4f\	.	4A\	.
.	.	.	.	4d\	.	4G\	.
8e/L	und	4c#/	.	4A/	.	4A\	.
8f/J	.	.	.	.	.	.	.
=22	=22	=22	=22	=22	=22	=22	=22
2.d;/	gut.	2.A;/	.	2.F;/	.	2.D;\	.
=23	=23	=23	=23	=23	=23	=23	=23
2f#/	Gott	4c/	.	2A/	.	4AA/	.
.	.	4A/	.	.	.	4D/	.
4f#/	kann	4d/	.	4A/	.	4C/	.
=24	=24	=24	=24	=24	=24	=24	=24
4g/	bes-	4d/	.	4B-\	.	4BB-/	.
4f#/	.	4c/	.	4c\	.	4AA/	.
4g/	-ser	4B-/	.	4d\	.	4GG/	.
=25	=25	=25	=25	=25	=25	=25	=25
4a/	als	2d/	.	4A/	.	4F#\	.
4b-\	.	.	.	4G/	.	4E\	.
4cc\	wir	4d/	.	4F#/	.	4D\	.
=26	=26	=26	=26	=26	=26	=26	=26
4b-\	den-	4d/	.	4G/	.	4G\	.
8a/L	.	4c/	.	4F#/	.	4D\	.
8b-/J	.	.	.	.	.	.	.
4g/	-ken	4B-/	.	4G/	.	4GG/	.
=27	=27	=27	=27	=27	=27	=27	=27
2cc\	al-	4g/	.	2G/	.	4E\	.
.	.	4e/	.	.	.	4C/	.
4cc\	-le	4f/	.	4A/	.	4F\	.
=28	=28	=28	=28	=28	=28	=28	=28
4cc\	Not	4g/	.	4c\	.	4E\	.
4dd\	.	4f/	.	4Bn\	.	4D\	.
4ee\	zum	4e/	.	4c\	.	4C/	.
=29	=29	=29	=29	=29	=29	=29	=29
4ff\	Be-	4d/	.	2c\	.	4D\	.
4ee\	.	8e/L	.	.	.	4G\	.
.	.	8f/J	.	.	.	.	.
4dd\	-sten	4g/	.	4Bn\	.	4GG/	.
=30	=30	=30	=30	=30	=30	=30	=30
2ee\	len-	2g/	.	2c\	.	2C/	.
4cc;\	-ken.	4e;/	.	4G;/	.	4C;/	.
=31	=31	=31	=31	=31	=31	=31	=31
4ff\	See-	2f/	.	2c\	.	2AA/	.
4cc\	.	.	.	.	.	.	.
4a/	-le,	4f/	.	4c\	.	4FF/	.
=32	=32	=32	=32	=32	=32	=32	=32
2dd\	so	2f/	.	2B-\	.	4BB-/	.
.	.	.	.	.	.	4B-\	.
4cc\	be-	4f/	.	4c\	.	4A\	.
=33	=33	=33	=33	=33	=33	=33	=33
4b-\	-den-	2g/	.	4d\	.	4G\	.
4cc\	.	.	.	4c\	.	4E\	.
4a/	-ke	4f/	.	4c\	.	4F\	.
=34	=34	=34	=34	=34	=34	=34	=34
2.g/	doch:	4f/	.	2.c\	.	4C/	.
.	.	2e/	.	.	.	4c\	.
.	.	.	.	.	.	4B-\	.
=35	=35	=35	=35	=35	=35	=35	=35
4cc\	lebt	2f/	.	2c\	.	4A\	.
4a/	.	.	.	.	.	4F\	.
4f/	doch	4f/	.	4c\	.	4A\	.
=36	=36	=36	=36	=36	=36	=36	=36
4dd\	un-	4f/	.	4B-\	un-	(4B-\	un-
4ee\	.	4g/	.	(4B-\	-ser	4G\)	.
4ff\	-ser	4a/	.	4c\)	.	[4F\	-ser
=37	=37	=37	=37	=37	=37	=37	=37
2a/	Herr	2f/	.	4c\	Herr	8F/L]	.
.	.	.	.	.	.	8AA/J	.
.	.	.	.	8d\L	Gott	4BB-/	Herr
.	.	.	.	8c\	.	.	.
8g/L	Gott	4e/	.	8B-\	.	4C/	Gott
8f/J	.	.	.	8c\J	.	.	.
=38	=38	=38	=38	=38	=38	=38	=38
2.f;/	noch.	2.c;/	.	2.A;/	noch.	2.FF;/	.
==|!	==|!	==|!	==|!	==|!	==|!	==|!	==|!
*-	*-	*-	*-	*-	*-	*-	*-
!!!RWG: Key is interpreted using the Humdrum key tool.
!!!END: 1994/06/06/
!!!KEY: 1403275196
!!!EMD: Converted from MuseData to Humdrum Dec 19, 2000, by Andreas Kornstaedt using muse2kern.
